modules/hawcons-stroke/icons/icon-132-cloud.svg

<?xml version="1.0" encoding="UTF-8" standalone="no"?>
<svg width="32px" height="32px" viewBox="0 0 32 32" version="1.1" xmlns="http://www.w3.org/2000/svg" xmlns:xlink="http://www.w3.org/1999/xlink" xmlns:sketch="http://www.bohemiancoding.com/sketch/ns">
    <!-- Generator: Sketch 3.0.3 (7891) - http://www.bohemiancoding.com/sketch -->
    <title>icon 132 cloud</title>
    <desc>Created with Sketch.</desc>
    <defs></defs>
    <g id="Page-1" stroke="none" stroke-width="1" fill="none" fill-rule="evenodd" sketch:type="MSPage">
        <g id="icon-132-cloud" sketch:type="MSArtboardGroup" fill="#929292">
            <path d="M7.10100919,16.1021544 C5.32460991,16.5117359 4,18.1046097 4,20 C4,22.209139 5.79793835,24 8.00281647,24 L24.9971835,24 C27.207878,24 29,22.2046438 29,20 C29,18.1320162 27.7144917,16.5630972 25.9844379,16.1230721 L25.9844379,16.1230721 C25.7929639,13.814166 23.8583427,12 21.5,12 C20.4237666,12 19.435776,12.3778124 18.6614243,13.0080411 C17.8400262,10.6734569 15.6154416,9 13,9 C9.68629134,9 7,11.6862913 7,15 C7,15.3764904 7.03467626,15.7448817 7.10100919,16.1021544 L7.10100919,16.1021544 Z M26.8828633,15.3655101 C28.7132907,16.1085075 30,17.9035809 30,20 C30,22.7558048 27.7616745,25 25.0005601,25 L7.99943992,25 C5.23249418,25 3,22.7614237 3,20 C3,17.9491311 4.23965876,16.1816085 6.01189661,15.4115388 L6.01189661,15.4115388 C6.00400207,15.275367 6,15.1381509 6,15 C6,11.1340066 9.13400656,8 13,8 C15.6127573,8 17.8911816,9.43144875 19.0938083,11.5528817 C19.8206159,11.1987158 20.6371017,11 21.5,11 C24.1486546,11 26.3600217,12.8722494 26.8828633,15.3655101 L26.8828633,15.3655101 L26.8828633,15.3655101 Z" id="cloud" sketch:type="MSShapeGroup"></path>
        </g>
    </g>
</svg>

<svg width="32" height="32" xmlns="http://www.w3.org/2000/svg"><path d="M7.101 16.102A4.006 4.006 0 0 0 4 20c0 2.21 1.798 4 4.003 4h16.994A4.004 4.004 0 0 0 29 20a4.006 4.006 0 0 0-3.016-3.877 4.5 4.5 0 0 0-7.323-3.115 6 6 0 1 0-11.56 3.094zm19.782-.736A4.998 4.998 0 0 1 30 20c0 2.756-2.238 5-5 5H8c-2.768 0-5-2.239-5-5 0-2.05 1.24-3.818 3.012-4.588a7 7 0 0 1 13.082-3.859 5.502 5.502 0 0 1 7.79 3.813h-.001z" fill="#929292" fill-rule="evenodd"/></svg>
